X:8061
T:Whinny Hills of Leitrim
O:england
M:9/8
L:1/8
C:Traditional
S:Dervish's "Harmony Hill"
R:Double Jig
A:Eire
K:D
FAA FAB AFD|FAA FAB d2A|FAA FAB AFD|~f3 edc B2A|
|:~f3 efe d2e|~f3 def gfe|~f3 dfd d2A|BAF DFA B2A:|


